public/assets/icons/menu-dark.svg

<svg xmlns="http://www.w3.org/2000/svg" width="32" height="33" fill="none" viewBox="0 0 32 33"><path fill="#fff" d="M4 8.96742H28V11.6341H4V8.96742ZM4 15.6341H28V18.3008H4V15.6341ZM4 22.3008H28V24.9674H4V22.3008Z"/></svg>

<svg fill="none" viewBox="0 0 32 33"><path fill="#fff" d="M4 8.967h24v2.667H4V8.967zm0 6.667h24v2.667H4v-2.667zm0 6.667h24v2.666H4v-2.666z"/></svg>
